CommonLib.Web/CommonLib.Web/wwwroot/icons/duotone/ballot.svg

<svg xmlns="http://www.w3.org/2000/svg" viewBox="0 0 448 512"><!--! Font Awesome Pro 6.2.0 by @fontawesome - https://fontawesome.com License - https://fontawesome.com/license (Commercial License) Copyright 2022 Fonticons, Inc. --><defs><style>.fa-secondary{opacity:.4}</style></defs><path class="fa-primary" d="M112 352h-32C71.25 352 64 359.3 64 368v32C64 408.8 71.25 416 80 416h32C120.8 416 128 408.8 128 400v-32C128 359.3 120.8 352 112 352zM112 224h-32C71.25 224 64 231.3 64 240v32C64 280.8 71.25 288 80 288h32C120.8 288 128 280.8 128 272v-32C128 231.3 120.8 224 112 224zM112 96h-32C71.25 96 64 103.3 64 112v32C64 152.8 71.25 160 80 160h32C120.8 160 128 152.8 128 144v-32C128 103.3 120.8 96 112 96z"/><path class="fa-secondary" d="M384 0H64C28.65 0 0 28.65 0 64v384c0 35.35 28.65 64 64 64h320c35.35 0 64-28.65 64-64V64C448 28.65 419.3 0 384 0zM128 400C128 408.8 120.8 416 112 416h-32C71.25 416 64 408.8 64 400v-32C64 359.3 71.25 352 80 352h32C120.8 352 128 359.3 128 368V400zM128 272C128 280.8 120.8 288 112 288h-32C71.25 288 64 280.8 64 272v-32C64 231.3 71.25 224 80 224h32C120.8 224 128 231.3 128 240V272zM128 144C128 152.8 120.8 160 112 160h-32C71.25 160 64 152.8 64 144v-32C64 103.3 71.25 96 80 96h32C120.8 96 128 103.3 128 112V144zM368 400h-160C199.2 400 192 392.8 192 384s7.164-16 16-16h160c8.838 0 16 7.164 16 16S376.8 400 368 400zM368 272h-160C199.2 272 192 264.8 192 256s7.164-16 16-16h160C376.8 240 384 247.2 384 256S376.8 272 368 272zM368 144h-160C199.2 144 192 136.8 192 128s7.164-16 16-16h160C376.8 112 384 119.2 384 128S376.8 144 368 144z"/></svg>

<svg xmlns="http://www.w3.org/2000/svg" viewBox="0 0 384 512"><defs><style>.fa-secondary{opacity:.4}</style></defs><path d="M360 0H24A23.94 23.94 0 0 0 0 24v464a23.94 23.94 0 0 0 24 24h336a23.94 23.94 0 0 0 24-24V24a23.94 23.94 0 0 0-24-24zM128 400a16 16 0 0 1-16 16H80a16 16 0 0 1-16-16v-32a16 16 0 0 1 16-16h32a16 16 0 0 1 16 16zm0-128a16 16 0 0 1-16 16H80a16 16 0 0 1-16-16v-32a16 16 0 0 1 16-16h32a16 16 0 0 1 16 16zm0-128a16 16 0 0 1-16 16H80a16 16 0 0 1-16-16v-32a16 16 0 0 1 16-16h32a16 16 0 0 1 16 16zm192 248a8 8 0 0 1-8 8H168a8 8 0 0 1-8-8v-16a8 8 0 0 1 8-8h144a8 8 0 0 1 8 8zm0-128a8 8 0 0 1-8 8H168a8 8 0 0 1-8-8v-16a8 8 0 0 1 8-8h144a8 8 0 0 1 8 8zm0-128a8 8 0 0 1-8 8H168a8 8 0 0 1-8-8v-16a8 8 0 0 1 8-8h144a8 8 0 0 1 8 8z" class="fa-secondary"/><path d="M112 352H80a16 16 0 0 0-16 16v32a16 16 0 0 0 16 16h32a16 16 0 0 0 16-16v-32a16 16 0 0 0-16-16zm0-128H80a16 16 0 0 0-16 16v32a16 16 0 0 0 16 16h32a16 16 0 0 0 16-16v-32a16 16 0 0 0-16-16zm0-128H80a16 16 0 0 0-16 16v32a16 16 0 0 0 16 16h32a16 16 0 0 0 16-16v-32a16 16 0 0 0-16-16z" class="fa-primary"/></svg>
